build/images/icons/categories/icon_3.svg

<svg width="50" height="50" viewBox="0 0 50 50" fill="none" xmlns="http://www.w3.org/2000/svg">
<path d="M49.7994 1.56086C49.9089 1.01952 49.5588 0.491941 49.0174 0.382498L48.1056 0.198153C47.5643 0.0887152 47.0367 0.438815 46.9272 0.980132L45.596 7.56367H35.3955C34.8432 7.56367 34.3955 8.01139 34.3955 8.56367V9.49395C34.3955 10.0462 34.8432 10.4939 35.3955 10.4939H38.7796L34.5484 27.4089L19.8461 18.9365C18.4337 18.1226 16.928 17.587 15.3928 17.3285V11.7282H17.7701C19.6954 11.7282 21.2618 10.1619 21.2618 8.23652C21.2618 6.51826 20.0311 5.06924 18.3355 4.79092L8.77251 3.22178C7.52993 3.01797 6.26724 3.36836 5.30767 4.1833C4.348 4.99824 3.79761 6.18779 3.79761 7.44678C3.79761 9.80762 5.71831 11.7283 8.07915 11.7283H9.62388V17.6619C8.59077 17.9601 7.58081 18.3864 6.61499 18.9446C2.47397 21.3377 0.00170898 25.6217 0.00170898 30.4045C0.00170898 35.8892 3.35522 40.6051 8.11929 42.6104L6.18384 47.0698H4.51099C3.9587 47.0698 3.51099 47.5175 3.51099 48.0698V49C3.51099 49.5523 3.9587 50 4.51099 50H9.77925C10.3315 50 10.7792 49.5523 10.7792 49V48.0697C10.7792 47.5174 10.3315 47.0697 9.77925 47.0697H9.37817L10.9525 43.4423C11.695 43.5721 12.4584 43.6402 13.2375 43.6402H35.9833C36.4424 43.6402 36.891 43.595 37.3262 43.512L38.8703 47.0697H38.4692C37.9169 47.0697 37.4692 47.5174 37.4692 48.0697V49C37.4692 49.5523 37.9169 50 38.4692 50H43.7374C44.2897 50 44.7374 49.5523 44.7374 49V48.0697C44.7374 47.5174 44.2897 47.0697 43.7374 47.0697H42.0646L40.0297 42.3811C41.9032 41.0903 43.1344 38.9312 43.1344 36.4892C43.1344 33.9401 41.7625 31.566 39.5539 30.2934L39.0745 30.0171L43.9581 10.4939H47.1751C47.651 10.4939 48.0609 10.1586 48.1552 9.69214L49.7994 1.56086ZM18.2803 39.4758C17.7298 39.4758 17.2828 39.0308 17.2803 38.4804L17.2727 36.8182L16.9957 36.217C15.914 36.9161 14.6272 37.3238 13.2462 37.3238C9.42603 37.3238 6.31802 34.2158 6.31802 30.3956C6.31802 26.5755 9.42603 23.4675 13.2462 23.4675C17.0665 23.4675 20.1745 26.5755 20.1745 30.3956C20.1745 31.7766 19.7667 33.0633 19.0676 34.1449L21.4681 36.5454H22.1045C22.6568 36.5454 23.1045 36.9931 23.1045 37.5454V38.4758C23.1045 39.0281 22.6568 39.4758 22.1045 39.4758H18.2803Z" fill="#AA161D"/>
<path d="M16.9132 31.9892C17.1265 31.5006 17.2456 30.9619 17.2456 30.3956C17.2455 28.1912 15.452 26.3977 13.2476 26.3977C11.0432 26.3977 9.24976 28.1912 9.24976 30.3956C9.24976 32.6 11.0432 34.3935 13.2476 34.3935C13.8139 34.3935 14.3527 34.2745 14.8413 34.0612L12.9188 32.1387C12.5283 31.7482 12.5283 31.115 12.9188 30.7245L13.5765 30.0667C13.9671 29.6762 14.6002 29.6762 14.9907 30.0667L16.9132 31.9892Z" fill="#AA161D"/>
</svg>

<svg width="50" height="50" fill="none" xmlns="http://www.w3.org/2000/svg"><path d="M49.8 1.56a1 1 0 00-.783-1.178l-.911-.184a1 1 0 00-1.179.782l-1.331 6.584h-10.2a1 1 0 00-1 1v.93a1 1 0 001 1h3.384l-4.232 16.915-14.702-8.473a13.351 13.351 0 00-4.453-1.608v-5.6h2.377a3.496 3.496 0 003.492-3.491 3.48 3.48 0 00-2.927-3.446L8.774 3.22a4.274 4.274 0 00-3.465.962 4.274 4.274 0 00-1.51 3.264c0 2.36 1.92 4.281 4.281 4.281h1.545v5.934a13.478 13.478 0 00-3.009 1.283C2.474 21.338.002 25.622.002 30.405c0 5.484 3.353 10.2 8.117 12.205l-1.935 4.46H4.51a1 1 0 00-1 1V49a1 1 0 001 1h5.268a1 1 0 001-1v-.93a1 1 0 00-1-1h-.4l1.574-3.628c.742.13 1.505.198 2.285.198h22.745c.46 0 .908-.045 1.343-.128l1.544 3.558h-.4a1 1 0 00-1 1V49a1 1 0 001 1h5.267a1 1 0 001-1v-.93a1 1 0 00-1-1h-1.672l-2.034-4.69a7.148 7.148 0 003.104-5.892 7.17 7.17 0 00-3.58-6.196l-.48-.276 4.884-19.523h3.217a1 1 0 00.98-.802l1.645-8.13zM18.28 39.477a1 1 0 01-1-.996l-.007-1.662-.277-.601a6.885 6.885 0 01-3.75 1.107 6.936 6.936 0 01-6.928-6.928 6.936 6.936 0 016.928-6.928 6.936 6.936 0 016.928 6.928 6.885 6.885 0 01-1.106 3.749l2.4 2.4h.637a1 1 0 011 1v.93a1 1 0 01-1 1H18.28z" fill="#AA161D"/><path d="M16.913 31.99a3.973 3.973 0 00.333-1.594 4.003 4.003 0 00-3.998-3.998 4.002 4.002 0 00-3.998 3.998 4.002 4.002 0 003.998 3.998c.566 0 1.105-.12 1.593-.333L12.92 32.14a1 1 0 010-1.415l.657-.657a1 1 0 011.415 0l1.922 1.922z" fill="#AA161D"/></svg>
